svgs/thin/percent.svg

<svg xmlns="http://www.w3.org/2000/svg" viewBox="0 0 384 512"><!--! Font Awesome Pro 6.3.0 by @fontawesome - https://fontawesome.com License - https://fontawesome.com/license (Commercial License) Copyright 2023 Fonticons, Inc. --><path d="M381.7 66.34c-3.125-3.125-8.188-3.125-11.31 0l-368 368c-3.125 3.125-3.125 8.188 0 11.31C3.906 447.2 5.938 448 8 448s4.094-.7813 5.656-2.344l368-368C384.8 74.53 384.8 69.47 381.7 66.34zM64 192c35.35 0 64-28.65 64-64S99.35 64.01 64 64.01S0 92.66 0 128S28.65 192 64 192zM64 80c26.47 0 48 21.53 48 48S90.47 176 64 176S16 154.5 16 128S37.53 80 64 80zM320 320c-35.35 0-64 28.65-64 64s28.65 64 64 64s64-28.65 64-64S355.3 320 320 320zM320 432c-26.47 0-48-21.53-48-48s21.53-48 48-48s48 21.53 48 48S346.5 432 320 432z"/></svg>

<svg xmlns="http://www.w3.org/2000/svg" viewBox="0 0 384 512"><!-- Font Awesome Pro 6.0.0-alpha2 by @fontawesome - https://fontawesome.com License - https://fontawesome.com/license (Commercial License) --><path d="M381.656 66.344C378.531 63.219 373.469 63.219 370.344 66.344L2.344 434.344C-0.781 437.469 -0.781 442.531 2.344 445.656C3.906 447.219 5.938 448 8 448S12.094 447.219 13.656 445.656L381.656 77.656C384.781 74.531 384.781 69.469 381.656 66.344ZM64 192C99.346 192 128 163.346 128 128S99.346 64 64 64S0 92.654 0 128S28.654 192 64 192ZM64 80C90.467 80 112 101.533 112 128S90.467 176 64 176S16 154.467 16 128S37.533 80 64 80ZM320 320C284.654 320 256 348.654 256 384S284.654 448 320 448S384 419.346 384 384S355.346 320 320 320ZM320 432C293.533 432 272 410.467 272 384S293.533 336 320 336S368 357.533 368 384S346.467 432 320 432Z"/></svg>
